img/svg/back.svg

<?xml version="1.0" encoding="utf-8"?><!DOCTYPE svg PUBLIC "-//W3C//DTD SVG 1.1//EN" "http://www.w3.org/Graphics/SVG/1.1/DTD/svg11.dtd"><svg version="1.1" baseProfile="full" xmlns="http://www.w3.org/2000/svg" xmlns:xlink="http://www.w3.org/1999/xlink" xmlns:ev="http://www.w3.org/2001/xml-events"   height="13px"   width="19px" ><path fill="rgb( 255, 102, 0 )" d="M3.21399999999994,12.677 C3.4369999999999,12.893 3.72800000000007,13 4.01999999999998,13 C4.31500000000005,13 4.6110000000001,12.889 4.83500000000004,12.668 C5.27999999999997,12.228 5.27600000000007,11.52 4.82500000000005,11.086 C4.82500000000005,11.086 3.92499999999995,10.217 3.92499999999995,10.217 C3.92499999999995,10.217 13.184,10.217 13.184,10.217 C14.7370000000001,10.217 16.1980000000001,9.62700000000001 17.296,8.55500000000001 C18.395,7.483 19,6.05799999999999 19,4.542 C19,4.542 19,4.44999999999999 19,4.44999999999999 C19,2.934 18.395,1.50899999999999 17.296,0.43700000000001 C16.8489999999999,0 16.123,0 15.675,0.43700000000001 C15.2270000000001,0.874 15.2270000000001,1.58199999999999 15.675,2.01900000000001 C16.3409999999999,2.66800000000001 16.7070000000001,3.53200000000001 16.7070000000001,4.44999999999999 C16.7070000000001,4.44999999999999 16.7070000000001,4.542 16.7070000000001,4.542 C16.7070000000001,6.43799999999999 15.126,7.97999999999999 13.184,7.97999999999999 C13.184,7.97999999999999 3.9079999999999,7.97999999999999 3.9079999999999,7.97999999999999 C3.9079999999999,7.97999999999999 4.83999999999992,7.06 4.83999999999992,7.06 C5.28500000000008,6.62 5.27999999999997,5.91200000000001 4.82999999999993,5.47800000000001 C4.37899999999991,5.04300000000001 3.65300000000002,5.048 3.20900000000006,5.48699999999999 C3.20900000000006,5.48699999999999 0.33300000000008,8.327 0.33300000000008,8.327 C0.11899999999991,8.53800000000001 0,8.82300000000001 0.00199999999995,9.12 C0.00399999999991,9.416 0.12599999999998,9.69999999999999 0.34300000000007,9.90899999999999 C0.34300000000007,9.90899999999999 3.21399999999994,12.677 3.21399999999994,12.677 Z "/></svg>

<svg baseProfile="full" xmlns="http://www.w3.org/2000/svg" height="13" width="19"><path fill="rgb( 255, 102, 0 )" d="M3.214 12.677c.223.216.514.323.806.323.295 0 .591-.111.815-.332.445-.44.441-1.148-.01-1.582l-.9-.869h9.259c1.553 0 3.014-.59 4.112-1.662 1.099-1.072 1.704-2.497 1.704-4.013v-.092c0-1.516-.605-2.941-1.704-4.013-.447-.437-1.173-.437-1.621 0-.448.437-.448 1.145 0 1.582.666.649 1.032 1.513 1.032 2.431v.092c0 1.896-1.581 3.438-3.523 3.438h-9.276l.932-.92c.445-.44.44-1.148-.01-1.582-.451-.435-1.177-.43-1.621.009l-2.876 2.84c-.214.211-.333.496-.331.793.002.296.124.58.341.789l2.871 2.768z"/></svg>
